www/assets/icons/icecream.svg

<svg xmlns="http://www.w3.org/2000/svg" width="24" height="24" viewBox="0 0 24 24" fill='currentColor'><path fill-rule="evenodd" d="m8.79 11.9 3.26 6.22 3.17-6.21c-.11-.08-.21-.16-.3-.25-.84.53-1.85.84-2.92.84s-2.08-.31-2.92-.84c-.09.09-.19.17-.29.24m-1.96.59A2.995 2.995 0 0 1 4 9.5a3 3 0 0 1 2.52-2.96A5.5 5.5 0 0 1 12 1.5a5.5 5.5 0 0 1 5.48 5.04A3 3 0 0 1 20 9.5c0 1.59-1.24 2.9-2.81 2.99L12.07 22.5z" clip-rule="evenodd"/></svg>

<svg width="24" height="24" viewBox="0 0 24 24" xmlns="http://www.w3.org/2000/svg" fill='currentColor'><path fill-rule="evenodd" clip-rule="evenodd" d="M8.79 11.9L12.05 18.12L15.22 11.91C15.11 11.83 15.01 11.75 14.92 11.66C14.08 12.19 13.07 12.5 12 12.5C10.93 12.5 9.92 12.19 9.08 11.66C8.99 11.75 8.89 11.83 8.79 11.9ZM6.83 12.49C5.25 12.4 4 11.1 4 9.5C4 8.01 5.09 6.77 6.52 6.54C6.75 3.72 9.12 1.5 12 1.5C14.88 1.5 17.25 3.72 17.48 6.54C18.91 6.77 20 8.01 20 9.5C20 11.09 18.76 12.4 17.19 12.49L12.07 22.5L6.83 12.49Z"/></svg>
